src/icons/ini.svg

<?xml version="1.0" encoding="UTF-8"?>
<svg xmlns="http://www.w3.org/2000/svg" xmlns:xlink="http://www.w3.org/1999/xlink" width="23.04" height="32" viewBox="0 0 23.04 32" version="1.1">
<defs>
<linearGradient id="linear0" gradientUnits="userSpaceOnUse" x1="36" y1="97" x2="36" y2="-1" gradientTransform="matrix(1,0,0,1,0,2)">
<stop offset="0" style="stop-color:rgb(78.431374%,83.137256%,85.882354%);stop-opacity:1;"/>
<stop offset="0.139" style="stop-color:rgb(84.705883%,88.235295%,90.196079%);stop-opacity:1;"/>
<stop offset="0.359" style="stop-color:rgb(92.156863%,94.117647%,95.294118%);stop-opacity:1;"/>
<stop offset="0.617" style="stop-color:rgb(97.647059%,98.039216%,98.431373%);stop-opacity:1;"/>
<stop offset="1" style="stop-color:rgb(100%,100%,100%);stop-opacity:1;"/>
</linearGradient>
<filter id="alpha" filterUnits="objectBoundingBox" x="0%" y="0%" width="100%" height="100%">
  <feColorMatrix type="matrix" in="SourceGraphic" values="0 0 0 0 1 0 0 0 0 1 0 0 0 0 1 0 0 0 1 0"/>
</filter>
<mask id="mask0">
  <g filter="url(#alpha)">
<rect x="0" y="0" width="23.04" height="32" style="fill:rgb(0%,0%,0%);fill-opacity:0.95;stroke:none;"/>
  </g>
</mask>
<linearGradient id="linear1" gradientUnits="userSpaceOnUse" x1="36.200001" y1="61.716999" x2="36.200001" y2="20.716999" >
<stop offset="0" style="stop-color:rgb(67.843139%,80.000001%,86.274511%);stop-opacity:1;"/>
<stop offset="1" style="stop-color:rgb(29.803923%,42.352942%,48.235294%);stop-opacity:1;"/>
</linearGradient>
<linearGradient id="linear2" gradientUnits="userSpaceOnUse" x1="36.200001" y1="62.216999" x2="36.200001" y2="20.216999" >
<stop offset="0" style="stop-color:rgb(67.843139%,80.000001%,86.274511%);stop-opacity:1;"/>
<stop offset="1" style="stop-color:rgb(29.803923%,42.352942%,48.235294%);stop-opacity:1;"/>
</linearGradient>
<linearGradient id="linear3" gradientUnits="userSpaceOnUse" x1="50.917999" y1="61.716999" x2="50.917999" y2="20.716999" >
<stop offset="0" style="stop-color:rgb(67.843139%,80.000001%,86.274511%);stop-opacity:1;"/>
<stop offset="1" style="stop-color:rgb(29.803923%,42.352942%,48.235294%);stop-opacity:1;"/>
</linearGradient>
<linearGradient id="linear4" gradientUnits="userSpaceOnUse" x1="50.917999" y1="62.216999" x2="50.917999" y2="20.216999" >
<stop offset="0" style="stop-color:rgb(67.843139%,80.000001%,86.274511%);stop-opacity:1;"/>
<stop offset="1" style="stop-color:rgb(29.803923%,42.352942%,48.235294%);stop-opacity:1;"/>
</linearGradient>
<linearGradient id="linear5" gradientUnits="userSpaceOnUse" x1="21.482" y1="61.716999" x2="21.482" y2="20.716999" >
<stop offset="0" style="stop-color:rgb(67.843139%,80.000001%,86.274511%);stop-opacity:1;"/>
<stop offset="1" style="stop-color:rgb(29.803923%,42.352942%,48.235294%);stop-opacity:1;"/>
</linearGradient>
<linearGradient id="linear6" gradientUnits="userSpaceOnUse" x1="21.482" y1="62.216999" x2="21.482" y2="20.216999" >
<stop offset="0" style="stop-color:rgb(67.843139%,80.000001%,86.274511%);stop-opacity:1;"/>
<stop offset="1" style="stop-color:rgb(29.803923%,42.352942%,48.235294%);stop-opacity:1;"/>
</linearGradient>
<clipPath id="clip1">
  <rect x="0" y="0" width="24" height="32"/>
</clipPath>
<g id="surface5" clip-path="url(#clip1)">
<path style="fill-rule:nonzero;fill:url(#linear1);stroke-width:1;stroke-linecap:butt;stroke-linejoin:miter;stroke:url(#linear2);stroke-miterlimit:10;" d="M 42.004395 35.400391 C 42.004395 32.897949 40.50293 30.895996 38.305664 30.004883 L 38.305664 22.705078 C 38.305664 21.496582 37.402344 20.605469 36.206055 20.605469 C 34.997559 20.605469 34.094238 21.496582 34.094238 22.705078 L 34.094238 30.004883 C 31.896973 30.79834 30.395508 32.897949 30.395508 35.400391 C 30.395508 37.902832 31.896973 40.002441 34.094238 40.795898 C 34.094238 40.905762 33.996582 41.101074 33.996582 41.19873 L 33.996582 59.594727 C 33.996582 60.803223 34.899902 61.694336 36.096191 61.694336 C 37.304688 61.694336 38.195801 60.803223 38.195801 59.594727 L 38.195801 41.19873 C 38.195801 41.003418 38.195801 40.905762 38.098145 40.795898 C 40.50293 40.002441 42.004395 37.902832 42.004395 35.400391 Z M 36.206055 36.999512 C 35.302734 36.999512 34.594727 36.303711 34.594727 35.400391 C 34.594727 34.49707 35.302734 33.80127 36.206055 33.80127 C 37.097168 33.80127 37.805176 34.49707 37.805176 35.400391 C 37.805176 36.303711 37.097168 36.999512 36.206055 36.999512 Z M 36.206055 36.999512 " transform="matrix(0.32,0,0,0.32,0,0)"/>
<path style="fill-rule:nonzero;fill:url(#linear3);stroke-width:1;stroke-linecap:butt;stroke-linejoin:miter;stroke:url(#linear4);stroke-miterlimit:10;" d="M 53.00293 22.802734 C 53.00293 21.594238 52.099609 20.703125 50.90332 20.703125 C 49.694824 20.703125 48.803711 21.594238 48.803711 22.802734 L 48.803711 40.002441 C 46.594238 40.795898 45.10498 42.895508 45.10498 45.397949 C 45.10498 47.900391 46.594238 50 48.803711 50.805664 C 48.803711 50.90332 48.706055 51.098633 48.706055 51.196289 L 48.706055 59.594727 C 48.706055 60.803223 49.597168 61.694336 50.805664 61.694336 C 52.001953 61.694336 52.905273 60.803223 52.905273 59.594727 L 52.905273 51.196289 C 52.905273 51.000977 52.905273 50.90332 52.79541 50.805664 C 55.004883 50 56.494141 47.900391 56.494141 45.397949 C 56.494141 42.895508 55.004883 40.905762 52.79541 40.002441 L 52.79541 22.802734 Z M 50.90332 46.99707 C 50 46.99707 49.304199 46.30127 49.304199 45.397949 C 49.304199 44.494629 50 43.798828 50.90332 43.798828 C 51.794434 43.798828 52.502441 44.494629 52.502441 45.397949 C 52.502441 46.30127 51.794434 46.99707 50.90332 46.99707 Z M 50.90332 46.99707 " transform="matrix(0.32,0,0,0.32,0,0)"/>
<path style="fill-rule:nonzero;fill:url(#linear5);stroke-width:1;stroke-linecap:butt;stroke-linejoin:miter;stroke:url(#linear6);stroke-miterlimit:10;" d="M 19.396973 59.594727 C 19.396973 60.803223 20.300293 61.694336 21.496582 61.694336 C 22.705078 61.694336 23.596191 60.803223 23.596191 59.594727 L 23.596191 51.196289 C 23.596191 51.000977 23.596191 50.90332 23.498535 50.805664 C 25.695801 50 27.197266 47.900391 27.197266 45.397949 C 27.197266 42.895508 25.695801 40.905762 23.498535 40.002441 L 23.498535 22.802734 C 23.498535 21.594238 22.595215 20.703125 21.398926 20.703125 C 20.202637 20.703125 19.299316 21.594238 19.299316 22.802734 L 19.299316 40.002441 C 17.102051 40.795898 15.600586 42.895508 15.600586 45.397949 C 15.600586 47.900391 17.102051 50 19.299316 50.805664 C 19.299316 50.90332 19.20166 51.098633 19.20166 51.196289 L 19.20166 59.594727 Z M 21.496582 43.798828 C 22.399902 43.798828 23.095703 44.494629 23.095703 45.397949 C 23.095703 46.30127 22.399902 46.99707 21.496582 46.99707 C 20.605469 46.99707 19.897461 46.30127 19.897461 45.397949 C 19.897461 44.494629 20.605469 43.798828 21.496582 43.798828 Z M 21.496582 43.798828 " transform="matrix(0.32,0,0,0.32,0,0)"/>
</g>
<linearGradient id="linear7" gradientUnits="userSpaceOnUse" x1="45.036999" y1="25.813" x2="58.536999" y2="12.313" gradientTransform="matrix(1,0,0,1,0,2)">
<stop offset="0" style="stop-color:rgb(100%,100%,100%);stop-opacity:1;"/>
<stop offset="0.35" style="stop-color:rgb(98.039216%,98.431373%,98.431373%);stop-opacity:1;"/>
<stop offset="0.532" style="stop-color:rgb(92.941177%,94.509804%,95.686275%);stop-opacity:1;"/>
<stop offset="0.675" style="stop-color:rgb(86.666667%,89.803922%,91.37255%);stop-opacity:1;"/>
<stop offset="0.799" style="stop-color:rgb(78.039217%,82.745099%,85.490197%);stop-opacity:1;"/>
<stop offset="0.908" style="stop-color:rgb(67.843139%,74.117649%,78.039217%);stop-opacity:1;"/>
<stop offset="1" style="stop-color:rgb(57.254905%,64.705884%,69.01961%);stop-opacity:1;"/>
</linearGradient>
</defs>
<g id="surface1">
<path style="fill-rule:nonzero;fill:url(#linear0);stroke-width:2;stroke-linecap:butt;stroke-linejoin:miter;stroke:rgb(44.313726%,56.862748%,63.137257%);stroke-opacity:1;stroke-miterlimit:4;" d="M 44.995117 1.000977 L 71.99707 27.697754 L 71.99707 98.999023 L 0 98.999023 L 0 1.000977 Z M 44.995117 1.000977 " transform="matrix(0.32,0,0,0.32,0,0)"/>
<use xlink:href="#surface5" mask="url(#mask0)"/>
<path style="fill-rule:nonzero;fill:url(#linear7);stroke-width:2;stroke-linecap:butt;stroke-linejoin:bevel;stroke:rgb(44.313726%,56.862748%,63.137257%);stroke-opacity:1;stroke-miterlimit:4;" d="M 44.995117 1.000977 L 71.99707 27.697754 L 44.995117 27.697754 Z M 44.995117 1.000977 " transform="matrix(0.32,0,0,0.32,0,0)"/>
<path style=" stroke:none;fill-rule:nonzero;fill:rgb(29.803923%,42.352942%,48.235294%);fill-opacity:1;" d="M 6.496094 29.40625 L 6.496094 23.007812 L 7.777344 23.007812 L 7.777344 29.40625 Z M 9.023438 29.40625 L 9.023438 23.007812 L 10.273438 23.007812 L 12.894531 27.296875 L 12.894531 22.976562 L 14.113281 22.976562 L 14.113281 29.375 L 12.800781 29.375 L 10.238281 25.214844 L 10.238281 29.40625 Z M 15.457031 29.40625 L 15.457031 23.007812 L 16.734375 23.007812 L 16.734375 29.40625 Z M 15.457031 29.40625 "/>
</g>
</svg>

<svg xmlns="http://www.w3.org/2000/svg" viewBox="0 0 72 100"><linearGradient id="a" gradientUnits="userSpaceOnUse" x1="36" y1="97" x2="36" y2="-1" gradientTransform="translate(0 2)"><stop offset="0" stop-color="#c8d4db"/><stop offset=".139" stop-color="#d8e1e6"/><stop offset=".359" stop-color="#ebf0f3"/><stop offset=".617" stop-color="#f9fafb"/><stop offset="1" stop-color="#fff"/></linearGradient><path d="M45 1l27 26.7V99H0V1h45z" fill="url(#a)"/><path d="M45 1l27 26.7V99H0V1h45z" fill-opacity="0" stroke="#7191a1" stroke-width="2"/><g opacity=".95"><linearGradient id="b" gradientUnits="userSpaceOnUse" x1="36.2" y1="61.717" x2="36.2" y2="20.717"><stop offset="0" stop-color="#adccdc"/><stop offset="1" stop-color="#4c6c7b"/></linearGradient><linearGradient id="c" gradientUnits="userSpaceOnUse" x1="36.2" y1="62.217" x2="36.2" y2="20.217"><stop offset="0" stop-color="#adccdc"/><stop offset="1" stop-color="#4c6c7b"/></linearGradient><path d="M42 35.4c0-2.5-1.5-4.5-3.7-5.4v-7.3c0-1.2-.9-2.1-2.1-2.1s-2.1.9-2.1 2.1V30c-2.2.8-3.7 2.9-3.7 5.4 0 2.5 1.5 4.6 3.7 5.4 0 .1-.1.3-.1.4v18.4c0 1.2.9 2.1 2.1 2.1s2.1-.9 2.1-2.1V41.2c0-.2 0-.3-.1-.4 2.4-.8 3.9-2.9 3.9-5.4zM36.2 37c-.9 0-1.6-.7-1.6-1.6s.7-1.6 1.6-1.6 1.6.7 1.6 1.6-.7 1.6-1.6 1.6z" fill="url(#b)" stroke="url(#c)" stroke-miterlimit="10"/><linearGradient id="d" gradientUnits="userSpaceOnUse" x1="50.918" y1="61.717" x2="50.918" y2="20.717"><stop offset="0" stop-color="#adccdc"/><stop offset="1" stop-color="#4c6c7b"/></linearGradient><linearGradient id="e" gradientUnits="userSpaceOnUse" x1="50.918" y1="62.217" x2="50.918" y2="20.217"><stop offset="0" stop-color="#adccdc"/><stop offset="1" stop-color="#4c6c7b"/></linearGradient><path d="M53 22.8c0-1.2-.9-2.1-2.1-2.1-1.2 0-2.1.9-2.1 2.1V40c-2.2.8-3.7 2.9-3.7 5.4 0 2.5 1.5 4.6 3.7 5.4 0 .1-.1.3-.1.4v8.4c0 1.2.9 2.1 2.1 2.1 1.2 0 2.1-.9 2.1-2.1v-8.4c0-.2 0-.3-.1-.4 2.2-.8 3.7-2.9 3.7-5.4 0-2.5-1.5-4.5-3.7-5.4V22.8zM50.9 47c-.9 0-1.6-.7-1.6-1.6 0-.9.7-1.6 1.6-1.6s1.6.7 1.6 1.6c0 .9-.7 1.6-1.6 1.6z" fill="url(#d)" stroke="url(#e)" stroke-miterlimit="10"/><linearGradient id="f" gradientUnits="userSpaceOnUse" x1="21.482" y1="61.717" x2="21.482" y2="20.717"><stop offset="0" stop-color="#adccdc"/><stop offset="1" stop-color="#4c6c7b"/></linearGradient><linearGradient id="g" gradientUnits="userSpaceOnUse" x1="21.482" y1="62.217" x2="21.482" y2="20.217"><stop offset="0" stop-color="#adccdc"/><stop offset="1" stop-color="#4c6c7b"/></linearGradient><path d="M19.4 59.6c0 1.2.9 2.1 2.1 2.1 1.2 0 2.1-.9 2.1-2.1v-8.4c0-.2 0-.3-.1-.4 2.2-.8 3.7-2.9 3.7-5.4 0-2.5-1.5-4.5-3.7-5.4V22.8c0-1.2-.9-2.1-2.1-2.1-1.2 0-2.1.9-2.1 2.1V40c-2.2.8-3.7 2.9-3.7 5.4 0 2.5 1.5 4.6 3.7 5.4 0 .1-.1.3-.1.4v8.4zm2.1-15.8c.9 0 1.6.7 1.6 1.6 0 .9-.7 1.6-1.6 1.6-.9 0-1.6-.7-1.6-1.6 0-.9.7-1.6 1.6-1.6z" fill="url(#f)" stroke="url(#g)" stroke-miterlimit="10"/></g><linearGradient id="h" gradientUnits="userSpaceOnUse" x1="45.037" y1="25.813" x2="58.537" y2="12.313" gradientTransform="translate(0 2)"><stop offset="0" stop-color="#fff"/><stop offset=".35" stop-color="#fafbfb"/><stop offset=".532" stop-color="#edf1f4"/><stop offset=".675" stop-color="#dde5e9"/><stop offset=".799" stop-color="#c7d3da"/><stop offset=".908" stop-color="#adbdc7"/><stop offset="1" stop-color="#92a5b0"/></linearGradient><path d="M45 1l27 26.7H45V1z" fill="url(#h)"/><path d="M45 1l27 26.7H45V1z" fill-opacity="0" stroke="#7191a1" stroke-width="2" stroke-linejoin="bevel"/><path d="M20.3 91.9v-20h4v20h-4zm7.9 0v-20h3.9l8.2 13.4V71.8h3.8v20H40l-8-13v13.1h-3.8zm20.1 0v-20h4v20h-4z" fill="#4c6c7b"/></svg>
